X: 39989
T: Three Guid Fellows Doon In Yon Glen
R: slip jig
M: 9/8
K: Amixolydian
|:ecA c2 e ecA|dBG B2 d dBG|ecA c2 e ecA|dcB BcG A3:|
a3 Ace agf|gfg GBd gfe|a3 Ace agf|dcB BcG A3|
a3 Ace agf|gfg GBd gfe|agf gfe fed|edc dcB cBA||

